app/client/icons/team.svg

<?xml version="1.0" encoding="UTF-8" standalone="no"?>
<svg
   width="100%"
   height="100%"
   viewBox="0 0 67.733332 67.733335"
   version="1.1"
   id="svg3"
   xmlns="http://www.w3.org/2000/svg"
   xmlns:svg="http://www.w3.org/2000/svg">
  <path
     id="team"
     fill= "currentColor"
     d="m 33.856806,12.378642 c -8.022722,-4.48e-4 -14.526,6.50283 -14.525551,14.525551 3.63e-4,8.022146 6.503404,14.525998 14.525551,14.52555 8.021572,-3.64e-4 14.525185,-6.503978 14.52555,-14.52555 4.47e-4,-8.022146 -6.503405,-14.525187 -14.52555,-14.525551 z M 13.716095,26.534868 c -4.1966653,7.59e-4 -7.5982657,3.403164 -7.5980352,7.599829 -2.314e-4,4.196665 3.4013699,7.599069 7.5980352,7.599828 3.543547,-0.01057 6.453487,-1.796491 7.23409,-5.253007 C 18.85256,34.179687 17.706251,30.592313 17.391408,27.494035 16.267246,26.86836 15.00264,26.538356 13.716095,26.534868 Z m 40.301141,0 c -1.286544,0.0035 -2.55115,0.333492 -3.675312,0.959167 -0.314843,3.098278 -1.461152,6.685652 -3.558777,8.987483 0.780603,3.456516 3.690542,5.242439 7.234089,5.253007 4.196665,-7.59e-4 7.598267,-3.403163 7.598036,-7.599828 2.3e-4,-4.196665 -3.401371,-7.59907 -7.598036,-7.599829 z M 13.873865,42.785126 C 7.6718665,42.750382 1.471031,44.792824 1.471031,49.018814 h 9.112981 c 2.206909,-2.435263 5.900144,-4.16735 10.249639,-5.222528 -2.067414,-0.655721 -4.51034,-0.997437 -6.959786,-1.01116 z m 39.985602,0 c -2.449446,0.01372 -4.892372,0.355439 -6.959786,1.01116 4.349495,1.055178 8.042731,2.787265 10.249639,5.222528 h 9.112981 c 0,-4.22599 -6.200837,-6.268432 -12.402834,-6.233688 z M 33.867563,43.437719 C 22.013262,43.504129 10.15911,47.542916 10.15911,55.354694 h 47.416904 c 0,-8.077424 -11.854148,-11.983387 -23.708451,-11.916975 z" />
</svg>

<?xml version="1.0" encoding="UTF-8" standalone="no"?>
<!DOCTYPE svg PUBLIC "-//W3C//DTD SVG 1.1//EN" "http://www.w3.org/Graphics/SVG/1.1/DTD/svg11.dtd">
<svg width="100%" height="100%" viewBox="0 0 68 68" version="1.1" xmlns="http://www.w3.org/2000/svg" xmlns:xlink="http://www.w3.org/1999/xlink" xml:space="preserve" xmlns:serif="http://www.serif.com/" style="fill-rule:evenodd;clip-rule:evenodd;stroke-linejoin:round;stroke-miterlimit:2;">
    <path id="team" d="M33.857,12.379C25.834,12.378 19.331,18.881 19.331,26.904C19.332,34.926 25.835,41.43 33.857,41.43C41.878,41.429 48.382,34.926 48.382,26.904C48.383,18.882 41.879,12.379 33.857,12.379ZM13.716,26.535C9.519,26.536 6.118,29.938 6.118,34.135C6.118,38.331 9.519,41.734 13.716,41.735C17.26,41.724 20.17,39.938 20.95,36.482C18.853,34.18 17.706,30.592 17.391,27.494C16.267,26.868 15.003,26.538 13.716,26.535ZM54.017,26.535C52.731,26.538 51.466,26.868 50.342,27.494C50.027,30.592 48.881,34.18 46.783,36.482C47.564,39.938 50.474,41.724 54.017,41.735C58.214,41.734 61.616,38.331 61.615,34.135C61.616,29.938 58.214,26.536 54.017,26.535ZM13.874,42.785C7.672,42.75 1.471,44.793 1.471,49.019L10.584,49.019C12.791,46.584 16.484,44.851 20.834,43.796C18.766,43.141 16.323,42.799 13.874,42.785ZM53.859,42.785C51.41,42.799 48.967,43.141 46.9,43.796C51.249,44.851 54.942,46.584 57.149,49.019L66.262,49.019C66.262,44.793 60.061,42.75 53.859,42.785ZM33.868,43.438C22.013,43.504 10.159,47.543 10.159,55.355L57.576,55.355C57.576,47.277 45.722,43.371 33.868,43.438Z" style="fill:white;fill-rule:nonzero;"/>
</svg>
